X:30
T:Star Of The County Down, The
C:Traditional
B:From The First Book of Irish Ballads, Daniel O'Keeffe
O:Irish
M:4/4
L:1/8
Q:1/4=160
K:C
Bd |:"Em"e2 e2 e2 de|"G"g2 g2 "D"a2 ga|"Em"b2 ag e2 dB|"D"d6 Bd|\
"Em"e2 e2 e2 de|"G"g2 g2 "D"a2 ga|"Em"b2 ag "D"e2 d2|[1 "Em"e6 dd :| [2 "Em" e6 bb ||
"G"d'2 b2 b2 ag|"D"a2 a2 "G"a2 ga|"Em"b2 ag e2 dB|"D"d6 Bd|\
"Em"e2 e2 e2 de|"G"g2 g2 "D"a2 ga|"Em"b2 ag "D"e2 d2|"Em"e6||


%%topmargin 1.2 in
%%bottommargin 1.0 in
%%titlefont Times-Roman 24
%%writehistory 1
%%scale 0.7
%%maxshrink 1
%
%
